X: 0134
T: Newington Assembly - 8x32R
P: Newington Assembly
C: (trad.)
Z: 2020 John Chambers <jc:trillian.mit.edu>
S: Originally Ours v.1 p.177 #MMM-0134
R: reel
M: 4/4
L: 1/8
K: D
A |: "D"FDAF "G"BG"D"AF | "D"DFdf "E/A7"e2G2 | "D"FDAF "G"BG"D"AF | "A7"Adce "D"d2D2 :|
"D"f/g/a fd "G/A7"bgag | "D"f/g/a fd "E/A7"b2eg | "D"f/g/a fd "G/A7"bgag | "D"fd"A7"ec "D"d2D2 |
"D"f/g/a fd "G/A7"bgag | "D"f/g/a fd "E/A7"b2eg | "D"fd"Em"ge "F#/D"af "G"bg | "D"fd"A7"ec "D"d2D2 :|
